packages/core/src/svgs/tokens/branded/MAV.svg

<svg width="24" height="24" viewBox="0 0 24 24" fill="none" xmlns="http://www.w3.org/2000/svg">
<path d="M14.8601 10.0702V10.0645C14.719 10.4762 14.3836 11.5056 14.113 12.3585C13.2954 14.7643 12.3542 15.5291 12.0013 15.5291C11.6189 15.5291 10.7189 14.7643 9.88361 12.3526L9.40129 10.835L8.25421 7.32911C8.31893 7.30559 8.38363 7.29382 8.45422 7.29382C9.11892 7.29382 9.73071 8.37617 10.5483 9.8115L10.9424 10.5056L11.1778 10.9467C11.5013 11.5644 11.7543 11.982 12.0013 11.9998C12.2484 11.982 12.5013 11.5644 12.8248 10.9408L13.0601 10.5056L13.4542 9.8115C14.2719 8.37617 14.8837 7.29382 15.5484 7.29382C15.6189 7.29382 15.6895 7.30559 15.7543 7.32911L14.8601 10.0702ZM15.1012 10.8938C15.3425 11.7527 15.6248 12.8645 15.6777 13.5056C15.7366 14.0761 15.7954 14.635 15.8542 15.0468C15.8954 15.3467 16.1483 15.5644 16.4543 15.5644H18.2249C18.3778 15.5644 18.4895 15.435 18.4719 15.288C18.1189 12.8879 17.2836 8.81735 16.1777 7.62911L15.1012 10.8997V10.8938ZM5.5307 15.2939C5.88363 12.8879 6.72481 8.81146 7.83658 7.62911L8.90128 10.888C8.66598 11.7527 8.37774 12.8645 8.32481 13.5115C8.26598 14.082 8.20716 14.6408 8.14834 15.0526C8.10716 15.3526 7.85421 15.5703 7.54834 15.5703H5.77775C5.74238 15.5715 5.70718 15.5649 5.67464 15.5511C5.64209 15.5372 5.61299 15.5164 5.58941 15.49C5.56583 15.4635 5.54836 15.4324 5.5382 15.3985C5.52806 15.3646 5.52549 15.3289 5.5307 15.2939Z" fill="url(#paint0_linear_364_2060)"/>
<path fill-rule="evenodd" clip-rule="evenodd" d="M12 22C14.6522 22 17.1957 20.9464 19.0711 19.071C20.9464 17.1957 22 14.6522 22 12C22 9.34785 20.9464 6.80429 19.0711 4.92892C17.1957 3.05357 14.6522 2 12 2C9.34784 2 6.80429 3.05357 4.92892 4.92892C3.05357 6.80429 2 9.34785 2 12C2 14.6522 3.05357 17.1957 4.92892 19.071C6.80429 20.9464 9.34784 22 12 22ZM12 21.4117C14.4961 21.4117 16.8901 20.4202 18.6551 18.6551C20.4202 16.89 21.4117 14.4961 21.4117 12C21.4117 9.50377 20.4202 7.10991 18.6551 5.34487C16.8901 3.57982 14.4961 2.58823 12 2.58823C9.5039 2.58823 7.10991 3.57982 5.34487 5.34487C3.57983 7.10991 2.58823 9.50377 2.58823 12C2.58823 14.4961 3.57983 16.89 5.34487 18.6551C7.10991 20.4202 9.5039 21.4117 12 21.4117Z" fill="url(#paint1_linear_364_2060)"/>
<defs>
<linearGradient id="paint0_linear_364_2060" x1="7.96462" y1="8.36091" x2="12.5767" y2="16.7136" gradientUnits="userSpaceOnUse">
<stop offset="0.03" stop-color="#D3606C"/>
<stop offset="0.69" stop-color="#5B7CFD"/>
</linearGradient>
<linearGradient id="paint1_linear_364_2060" x1="5.76428" y1="4.57856" x2="18.7929" y2="19.6642" gradientUnits="userSpaceOnUse">
<stop offset="0.03" stop-color="#D3606C"/>
<stop offset="0.69" stop-color="#5B7CFD"/>
</linearGradient>
</defs>
</svg>

<svg xmlns="http://www.w3.org/2000/svg" width="24" height="24" fill="none" viewBox="0 0 24 24">
    <path fill="url(#MAV__a)" d="M14.86 10.07v-.005c-.141.411-.476 1.44-.747 2.294-.818 2.405-1.759 3.17-2.112 3.17-.382 0-1.282-.765-2.117-3.176L9.4 10.835 8.254 7.329a.6.6 0 0 1 .2-.035c.665 0 1.277 1.082 2.094 2.518l.394.694.236.44c.323.618.576 1.036.823 1.054.247-.018.5-.436.824-1.06l.235-.434.394-.694c.818-1.436 1.43-2.518 2.094-2.518.07 0 .142.012.206.035zm.241.824c.241.859.524 1.97.577 2.612.059.57.117 1.129.176 1.54.041.3.294.518.6.518h1.77a.246.246 0 0 0 .248-.276c-.353-2.4-1.188-6.47-2.294-7.659L15.1 10.9zm-9.57 4.4c.353-2.406 1.194-6.483 2.306-7.665L8.9 10.888c-.235.865-.523 1.976-.576 2.624-.059.57-.118 1.129-.177 1.54a.6.6 0 0 1-.6.518h-1.77a.24.24 0 0 1-.24-.171.24.24 0 0 1-.007-.105"/>
    <path fill="url(#MAV__b)" fill-rule="evenodd" d="M12 22a10 10 0 1 0 0-20 10 10 0 0 0 0 20m0-.588a9.411 9.411 0 1 0 0-18.823 9.411 9.411 0 0 0 0 18.823" clip-rule="evenodd"/>
    <defs>
        <linearGradient id="MAV__a" x1="7.965" x2="12.577" y1="8.361" y2="16.714" gradientUnits="userSpaceOnUse">
            <stop offset=".03" stop-color="#D3606C"/>
            <stop offset=".69" stop-color="#5B7CFD"/>
        </linearGradient>
        <linearGradient id="MAV__b" x1="5.764" x2="18.793" y1="4.579" y2="19.664" gradientUnits="userSpaceOnUse">
            <stop offset=".03" stop-color="#D3606C"/>
            <stop offset=".69" stop-color="#5B7CFD"/>
        </linearGradient>
    </defs>
</svg>
